outputs/icons/people/person_clock_round.svg

<svg xmlns="http://www.w3.org/2000/svg" width="1200" height="1200" fill="none"><path fill="#000" d="M550 600c110.455 0 200-89.545 200-200 0-110.457-89.545-200-200-200-110.457 0-200 89.543-200 200 0 110.455 89.543 200 200 200M583.5 651c-11-.5-22-1-33.5-1-121 0-234 33.5-330.5 91-44 26-69.5 75-69.5 126.5V950c0 27.615 22.386 50 50 50h413c-39.5-56.5-63-125.5-63-200 0-53.5 12.5-103.5 33.5-149"/><path fill="#000" d="M849.75 550C711.75 550 600 662 600 800s111.75 250 249.75 250C988 1050 1100 938 1100 800S988 550 849.75 550m.25 450c-110.5 0-200-89.5-200-200s89.5-200 200-200 200 89.5 200 200-89.5 200-200 200"/><path fill="#000" d="M824.035 650h2.005c13.355 0 24.035 9.815 24.035 22.09v139.28l88.03 47.755c11.68 6.135 15.355 19.94 8.345 30.37-6.68 10.435-21.365 13.5-32.715 7.365l-97.375-53.585C806.01 837.755 800 827.63 800 816.89v-144.8c0-12.275 10.685-22.09 24.035-22.09"/></svg>

<svg width="1200" height="1200" viewBox="0 0 1200 1200" fill="none" xmlns="http://www.w3.org/2000/svg"><path d="M550 600C660.455 600 750 510.455 750 400C750 289.543 660.455 200 550 200C439.543 200 350 289.543 350 400C350 510.455 439.543 600 550 600Z" fill="#1D1E23"/><path d="M583.5 651C572.5 650.5 561.5 650 550 650C429 650 316 683.5 219.5 741C175.5 767 150 816 150 867.5V950C150 977.615 172.386 1000 200 1000H613C573.5 943.5 550 874.5 550 800C550 746.5 562.5 696.5 583.5 651Z" fill="#1D1E23"/><path d="M849.75 550C711.75 550 600 662 600 800C600 938 711.75 1050 849.75 1050C988 1050 1100 938 1100 800C1100 662 988 550 849.75 550ZM850 1000C739.5 1000 650 910.5 650 800C650 689.5 739.5 600 850 600C960.5 600 1050 689.5 1050 800C1050 910.5 960.5 1000 850 1000Z" fill="#1D1E23"/><path d="M824.035 650H826.04C839.395 650 850.075 659.815 850.075 672.09V811.37L938.105 859.125C949.785 865.26 953.46 879.065 946.45 889.495C939.77 899.93 925.085 902.995 913.735 896.86L816.36 843.275C806.01 837.755 800 827.63 800 816.89V672.09C800 659.815 810.685 650 824.035 650Z" fill="#1D1E23"/></svg>
